public/assets/img/attach_file.svg

<svg width="9" height="14" viewBox="0 0 9 14" fill="none" xmlns="http://www.w3.org/2000/svg">
<path d="M5.098 2.94655L5.098 2.94661L5.098 9.39322C5.098 9.64465 5.01174 9.85942 4.83936 10.0368C4.66701 10.2143 4.4546 10.3031 4.20292 10.3031C3.95136 10.3031 3.73895 10.2143 3.56648 10.0368C3.39422 9.85941 3.30803 9.64465 3.30803 9.39322V2.94414H2.55525V9.39322C2.55525 9.85696 2.71895 10.2497 3.04657 10.5722C3.3743 10.8948 3.76524 11.0559 4.22003 11.0559C4.67474 11.0559 5.05987 10.8922 5.37615 10.5646C5.69267 10.2369 5.85078 9.84665 5.85078 9.39322V2.96158C5.85078 2.14216 5.56904 1.44604 5.00542 0.872483C4.44198 0.299111 3.75099 0.0125 2.93164 0.0125C2.11229 0.0125 1.42123 0.299111 0.857665 0.872484L0.84875 0.863722L0.857667 0.872482C0.294178 1.44604 0.0125 2.14216 0.0125 2.96158V9.75217C0.0125 10.927 0.419573 11.9263 1.23389 12.7509C2.04819 13.5754 3.04014 13.9875 4.2105 13.9875C5.38086 13.9875 6.37027 13.5754 7.1795 12.7509C7.9889 11.9264 8.39353 10.927 8.39353 9.75217V2.94414H7.64075V9.75217V9.75225C7.63464 10.7157 7.29947 11.5373 6.63541 12.2162C5.9713 12.8951 5.16457 13.2347 4.21594 13.2347C3.25363 13.2347 2.43693 12.8951 1.76658 12.2162C1.09612 11.5373 0.762286 10.7157 0.765278 9.75213M5.098 2.94655L1.3934 1.40779L1.40233 1.41653L1.3934 1.40779M5.098 2.94655C5.095 2.33906 4.88599 1.82336 4.47104 1.40019M5.098 2.94655L4.47104 1.40019M0.765278 9.75213L0.777778 9.75217H0.765278L0.765278 9.75213ZM0.765278 9.75213L0.765278 2.96158C0.765278 2.35404 0.974704 1.83587 1.3934 1.40779M1.3934 1.40779C1.81215 0.979515 2.32516 0.765278 2.93164 0.765278M1.3934 1.40779L2.93164 0.765278M4.47104 1.40019C4.05612 0.976935 3.54271 0.765278 2.93164 0.765278M4.47104 1.40019L2.93164 0.765278M7.62825 2.94414V2.93164H7.64075L7.62825 2.94414Z" fill="#F6F6F6" stroke="#F6F6F6" stroke-width="0.025"/>
</svg>

<svg xmlns="http://www.w3.org/2000/svg" width="9" height="14" fill="none"><path fill="#F6F6F6" stroke="#F6F6F6" stroke-width=".025" d="M5.098 2.947v6.446a.9.9 0 0 1-.259.644.85.85 0 0 1-.636.266.85.85 0 0 1-.637-.266.9.9 0 0 1-.258-.644V2.944h-.753v6.45q0 .695.492 1.178.49.484 1.173.484.682 0 1.156-.491.475-.492.475-1.172V2.962q0-1.23-.846-2.09-.844-.86-2.073-.86T.858.872L.848.864l.01.008q-.845.86-.845 2.09v6.79q0 1.762 1.22 2.999 1.222 1.237 2.978 1.237t2.968-1.237 1.215-2.999V2.944H7.64v6.808q-.01 1.446-1.006 2.464a3.26 3.26 0 0 1-2.42 1.019q-1.442 0-2.448-1.019T.765 9.752m4.333-6.805-3.705-1.54.01.01-.01-.01m3.705 1.54A2.14 2.14 0 0 0 4.471 1.4m.627 1.547L4.471 1.4M.765 9.752h.013-.013Zm0 0v-6.79q0-.912.628-1.554m0 0A2.07 2.07 0 0 1 2.932.765m-1.539.643L2.932.765M4.47 1.4Q3.849.765 2.931.765m1.54.635L2.931.765m4.697 2.18v-.013h.013z"/></svg>
